X: 40869
T: Trevor Learoyd's Not A Day Over 69
R: reel
M: 4/4
K: Dmixolydian
|:{c}d2cA G=FD2|DDED =FDAD|cdcA G=FD2|EDCD D4:|
|:_B,3D =FAG2|zG2=F G3A|FGFD zDFG|FD2D EDCD|
_B,3D =FAG2|zG2=F G3A|dcAd zdcA|1 GFD2 EDCD:|2 GAc2 gfd2||
|:gfdc- c2d2-|d4- d4|gfdc- c2d2-|ddcA GFD2|
gfdc- c2d2-|d4- d2cd|e4- e2=fe|d4 c2d2:|

